X:1
T: Karl Olofspolskan
C: Gössa Anders Andersson
R: Polska
S: Utlärd av Björn Ståbi
Z: Karin Arén
M: 3/4
L: 1/8
K: Am
|: vA>u(^c d)>(ve f/e/f/g/) | ua>v(b a)ud vg>e | vf>u(g (5fed^cd) | ve>^c (3v(BGB) uA2 | 
A>(^c d)>(e f/e/f/g/) | a>(b a)d g>e | f>g f>e d2 | (3(^cB^c) d4 :|:
vA>E v(3GE^C uD>uE | (3v(FGA) (3u(BGB) v(A2 |A)>(uE (3G)E^C vD>uE |
(3v(FGA) (3u(BGB) v(A2 | f2) u(f>e) d>e | (3(v^cB^c) ud4 :|

